X:22
T:Smuggler's Reel, The
T:Old Grey Cat, The
R:reel
H:A version of the jig "The Boys of Tandernagee", #152
D:Mary Custy & Eoin O'Neill (first album)
Z:id:hn-reel-711
M:C|
K:Edor
e2e2 E3F|GFGA BABc|d2d2 D3E|FEFA BABd|
e2e2 E3F|GFGA BABc|dBcA BAFG|~E3D E4:|
|:Beed ~e3f|geaf gfed|Bddc d3B|ABde fagf|
eB~B2 gB~B2|aB~B2 bB~B2|gfed BA (3Bcd|egfd e4:|

